X:290
T:Anne Lacey's
C:Liz Carrol
R:reel
M:4/4
L:1/8
K:Gdor
G3F GBBB | BGFD CB,DF | G2GF GBdc | BGFD CB,B,=B,|
C2CB, CDFG | BGFD GDF^F | GG,G,G, G,B,DG |1 BGFD GDF^F :|2 BGFD G4 |:
g3f dcBc | dcBc dggg | ecfc gcfg | bgfd cBdf |
fggf fcBc | dcBG FDGD | C2CB, CDFG | BGFD GDF^F :|
